X: 21421
T: the Bonny Lass of Aberdeen
%R: air, strathspey
B: James Oswald "The Caledonian Pocket Companion" v.2 p.142 #1
Z: 2018 John Chambers <jc:trillian.mit.edu>
M: C|
L: 1/16
K: Dm
"_Slow"A2 |\
(B3c)(B3c) A6 c2 | (Bc)d2 Tc3A G4 TF3D |\
F4 f4 (c2B2)(A2G2) | F4 (TE3D/E/) D6 :|
|: e2 |\
f2F2 f2g2 (fg)a2 Tg2f2 | g2G2 g2a2 (gab2) Ta3g |\
(f2e2)(f2g2) (fg)a2 Tg2f2 | g2f2Te2d2 c4 (f3g) |
a3gf2a2 g2(fg) e2g2 | (f2e2)(d2^c2) d3ef2d2 |\
T=c3A TG2F2 G2(AB) A2G2 | F4 (TE3D/E/) D6 :|
|: (fe) |\
d4 (gfdc) A4 a3g | f3d (fdcA) G4 (AGAc) |\
(d2A2)(f2e2) d4 (def2) | F4 (AGFE) D6 :|
|: (de) |\
(f3g)(f3g) (f3g) a2(gf) | g2G2 g2a2 {ga}b4 Ta2g2 |\
(g2e2)(g2f2) (a2g2)(b2a2) | g2(fe) (gfed) c4 f3g |
(af3) a4 (ge3) g4 | f2(ed) (fed^c) d3ef2d2 |\
c2A2 (BAGF) (G2A2) a2g2 | f4 Te3(d/e/) d6 :|
